public/assets/logos/React SVG Icons.svg

<?xml version="1.0" encoding="utf-8"?><!-- Uploaded to: SVG Repo, www.svgrepo.com, Generator: SVG Repo Mixer Tools -->
<svg width="800px" height="800px" viewBox="0 0 32 32" fill="none" xmlns="http://www.w3.org/2000/svg">
<path d="M18.6789 15.9759C18.6789 14.5415 17.4796 13.3785 16 13.3785C14.5206 13.3785 13.3211 14.5415 13.3211 15.9759C13.3211 17.4105 14.5206 18.5734 16 18.5734C17.4796 18.5734 18.6789 17.4105 18.6789 15.9759Z" fill="#53C1DE"/>
<path fill-rule="evenodd" clip-rule="evenodd" d="M24.7004 11.1537C25.2661 8.92478 25.9772 4.79148 23.4704 3.39016C20.9753 1.99495 17.7284 4.66843 16.0139 6.27318C14.3044 4.68442 10.9663 2.02237 8.46163 3.42814C5.96751 4.82803 6.73664 8.8928 7.3149 11.1357C4.98831 11.7764 1 13.1564 1 15.9759C1 18.7874 4.98416 20.2888 7.29698 20.9289C6.71658 23.1842 5.98596 27.1909 8.48327 28.5877C10.9973 29.9932 14.325 27.3945 16.0554 25.7722C17.7809 27.3864 20.9966 30.0021 23.4922 28.6014C25.9956 27.1963 25.3436 23.1184 24.7653 20.8625C27.0073 20.221 31 18.7523 31 15.9759C31 13.1835 26.9903 11.7923 24.7004 11.1537ZM24.4162 19.667C24.0365 18.5016 23.524 17.2623 22.8971 15.9821C23.4955 14.7321 23.9881 13.5088 24.3572 12.3509C26.0359 12.8228 29.7185 13.9013 29.7185 15.9759C29.7185 18.07 26.1846 19.1587 24.4162 19.667ZM22.85 27.526C20.988 28.571 18.2221 26.0696 16.9478 24.8809C17.7932 23.9844 18.638 22.9422 19.4625 21.7849C20.9129 21.6602 22.283 21.4562 23.5256 21.1777C23.9326 22.7734 24.7202 26.4763 22.85 27.526ZM9.12362 27.5111C7.26143 26.47 8.11258 22.8946 8.53957 21.2333C9.76834 21.4969 11.1286 21.6865 12.5824 21.8008C13.4123 22.9332 14.2816 23.9741 15.1576 24.8857C14.0753 25.9008 10.9945 28.557 9.12362 27.5111ZM2.28149 15.9759C2.28149 13.874 5.94207 12.8033 7.65904 12.3326C8.03451 13.5165 8.52695 14.7544 9.12123 16.0062C8.51925 17.2766 8.01977 18.5341 7.64085 19.732C6.00369 19.2776 2.28149 18.0791 2.28149 15.9759ZM9.1037 4.50354C10.9735 3.45416 13.8747 6.00983 15.1159 7.16013C14.2444 8.06754 13.3831 9.1006 12.5603 10.2265C11.1494 10.3533 9.79875 10.5569 8.55709 10.8297C8.09125 9.02071 7.23592 5.55179 9.1037 4.50354ZM20.3793 11.5771C21.3365 11.6942 22.2536 11.85 23.1147 12.0406C22.8562 12.844 22.534 13.6841 22.1545 14.5453C21.6044 13.5333 21.0139 12.5416 20.3793 11.5771ZM16.0143 8.0481C16.6054 8.66897 17.1974 9.3623 17.7798 10.1145C16.5985 10.0603 15.4153 10.0601 14.234 10.1137C14.8169 9.36848 15.414 8.67618 16.0143 8.0481ZM9.8565 14.5444C9.48329 13.6862 9.16398 12.8424 8.90322 12.0275C9.75918 11.8418 10.672 11.69 11.623 11.5748C10.9866 12.5372 10.3971 13.5285 9.8565 14.5444ZM11.6503 20.4657C10.6679 20.3594 9.74126 20.2153 8.88556 20.0347C9.15044 19.2055 9.47678 18.3435 9.85796 17.4668C10.406 18.4933 11.0045 19.4942 11.6503 20.4657ZM16.0498 23.9915C15.4424 23.356 14.8365 22.6531 14.2448 21.8971C15.4328 21.9423 16.6231 21.9424 17.811 21.891C17.2268 22.6608 16.6369 23.3647 16.0498 23.9915ZM22.1667 17.4222C22.5677 18.3084 22.9057 19.1657 23.1742 19.9809C22.3043 20.1734 21.3652 20.3284 20.3757 20.4435C21.015 19.4607 21.6149 18.4536 22.1667 17.4222ZM18.7473 20.5941C16.9301 20.72 15.1016 20.7186 13.2838 20.6044C12.2509 19.1415 11.3314 17.603 10.5377 16.0058C11.3276 14.4119 12.2404 12.8764 13.2684 11.4158C15.0875 11.2825 16.9178 11.2821 18.7369 11.4166C19.7561 12.8771 20.6675 14.4086 21.4757 15.9881C20.6771 17.5812 19.7595 19.1198 18.7473 20.5941ZM22.8303 4.4666C24.7006 5.51254 23.8681 9.22726 23.4595 10.8426C22.2149 10.5641 20.8633 10.3569 19.4483 10.2281C18.6239 9.09004 17.7698 8.05518 16.9124 7.15949C18.1695 5.98441 20.9781 3.43089 22.8303 4.4666Z" fill="#53C1DE"/>
</svg>

<svg xmlns="http://www.w3.org/2000/svg" width="800" height="800" fill="none" viewBox="0 0 32 32"><path fill="#53C1DE" d="M18.679 15.976c0-1.435-1.2-2.597-2.679-2.597-1.48 0-2.679 1.162-2.679 2.597 0 1.434 1.2 2.597 2.679 2.597 1.48 0 2.679-1.163 2.679-2.597"/><path fill="#53C1DE" fill-rule="evenodd" d="M24.7 11.154c.566-2.23 1.277-6.363-1.23-7.764-2.495-1.395-5.742 1.278-7.456 2.883-1.71-1.589-5.048-4.25-7.552-2.845-2.494 1.4-1.725 5.465-1.147 7.708-2.327.64-6.315 2.02-6.315 4.84 0 2.811 3.984 4.313 6.297 4.953-.58 2.255-1.311 6.262 1.186 7.659 2.514 1.405 5.842-1.194 7.572-2.816 1.726 1.614 4.942 4.23 7.437 2.83 2.504-1.406 1.852-5.484 1.273-7.74 2.242-.641 6.235-2.11 6.235-4.886 0-2.793-4.01-4.184-6.3-4.822m-.284 8.513a29 29 0 0 0-1.519-3.685 29 29 0 0 0 1.46-3.631c1.679.472 5.361 1.55 5.361 3.625 0 2.094-3.533 3.183-5.302 3.691m-1.566 7.859c-1.862 1.045-4.628-1.456-5.902-2.645a29 29 0 0 0 2.514-3.096 31 31 0 0 0 4.064-.607c.407 1.595 1.194 5.298-.676 6.348m-13.726-.015c-1.863-1.041-1.011-4.616-.584-6.278a31 31 0 0 0 4.042.568 31 31 0 0 0 2.576 3.085c-1.083 1.015-4.163 3.671-6.034 2.625M2.28 15.976c0-2.102 3.661-3.173 5.378-3.643a29 29 0 0 0 1.462 3.673 30 30 0 0 0-1.48 3.726c-1.637-.454-5.36-1.653-5.36-3.756M9.104 4.504c1.87-1.05 4.77 1.506 6.012 2.656a30 30 0 0 0-2.556 3.066c-1.41.127-2.761.33-4.003.604-.466-1.81-1.321-5.278.547-6.326m11.275 7.073c.957.117 1.875.273 2.736.464a26 26 0 0 1-.96 2.504 41 41 0 0 0-1.776-2.968m-4.365-3.529a27 27 0 0 1 1.766 2.066 39 39 0 0 0-3.546 0 28 28 0 0 1 1.78-2.066m-6.157 6.496a27 27 0 0 1-.954-2.517 30 30 0 0 1 2.72-.452 36 36 0 0 0-1.766 2.97m1.793 5.922a28 28 0 0 1-2.764-.431c.264-.83.59-1.692.972-2.568a36 36 0 0 0 1.792 2.999m4.4 3.525a28 28 0 0 1-1.805-2.094q1.783.069 3.566-.006a27 27 0 0 1-1.761 2.1m6.117-6.569c.4.886.739 1.744 1.007 2.559a28 28 0 0 1-2.798.462 41 41 0 0 0 1.79-3.02m-3.42 3.172a41.5 41.5 0 0 1-5.463.01 35 35 0 0 1-2.746-4.598 35 35 0 0 1 2.73-4.59 37.4 37.4 0 0 1 5.469 0 39 39 0 0 1 2.739 4.572 39 39 0 0 1-2.729 4.606M22.83 4.467c1.87 1.046 1.038 4.76.63 6.376a32 32 0 0 0-4.012-.615 29 29 0 0 0-2.536-3.069c1.258-1.175 4.066-3.728 5.918-2.692" clip-rule="evenodd"/></svg>
